docs-assets/logoname-black.svg

<svg width="146" height="48" viewBox="0 0 146 48" fill="none" xmlns="http://www.w3.org/2000/svg">
<path d="M21.976 47.64C17.5813 47.64 13.7627 46.936 10.52 45.528C7.32 44.12 4.824 42.0933 3.032 39.448C1.28267 36.8027 0.408 33.6027 0.408 29.848C0.408 25.9227 1.304 22.616 3.096 19.928C4.93067 17.1973 7.448 15.128 10.648 13.72C13.8907 12.2693 17.624 11.544 21.848 11.544C26.4987 11.544 30.424 12.376 33.624 14.04C36.8667 15.704 39.2773 18.1147 40.856 21.272C42.4347 24.4293 43.0533 28.248 42.712 32.728H14.552C14.5947 33.88 14.9147 34.8827 15.512 35.736C16.152 36.5893 17.048 37.2507 18.2 37.72C19.352 38.1467 20.7387 38.36 22.36 38.36C24.1093 38.36 25.6453 38.104 26.968 37.592C28.2907 37.0373 29.144 36.3547 29.528 35.544H42.84C42.584 37.9333 41.5173 40.0453 39.64 41.88C37.7627 43.7147 35.3093 45.144 32.28 46.168C29.2507 47.1493 25.816 47.64 21.976 47.64ZM14.168 26.008L13.72 25.368H29.4L28.824 25.944C28.7387 24.9627 28.44 24.088 27.928 23.32C27.416 22.552 26.648 21.9547 25.624 21.528C24.6427 21.1013 23.3627 20.888 21.784 20.888C20.376 20.888 19.1387 21.08 18.072 21.464C17.0053 21.8053 16.1307 22.36 15.448 23.128C14.808 23.896 14.3813 24.856 14.168 26.008ZM51.8675 47V44.888C51.8675 42.328 52.3155 40.0667 53.2115 38.104C54.1075 36.1413 55.3022 34.4133 56.7955 32.92C58.2888 31.384 59.9315 30.0187 61.7235 28.824C63.5155 27.5867 65.3075 26.456 67.0995 25.432C68.8915 24.3653 70.5342 23.3413 72.0275 22.36C73.5208 21.3787 74.7155 20.3547 75.6115 19.288C76.5075 18.2213 76.9555 17.048 76.9555 15.768C76.9555 14.6587 76.6782 13.784 76.1235 13.144C75.6115 12.4613 74.9715 11.9707 74.2035 11.672C73.4782 11.3733 72.7955 11.224 72.1555 11.224C70.8328 11.224 69.7235 11.4587 68.8275 11.928C67.9315 12.3973 67.2275 13.08 66.7155 13.976C66.2462 14.8293 65.9262 15.8533 65.7555 17.048H52.0595C52.4862 13.208 53.5528 10.072 55.2595 7.64C56.9662 5.16533 59.2702 3.33066 62.1715 2.136C65.0728 0.941331 68.5502 0.343998 72.6035 0.343998C76.5715 0.343998 79.9422 0.983997 82.7155 2.264C85.4888 3.50133 87.6008 5.25067 89.0515 7.512C90.5022 9.77333 91.2275 12.4187 91.2275 15.448C91.2275 17.3253 90.9288 19.032 90.3315 20.568C89.7342 22.0613 88.9235 23.448 87.8995 24.728C86.9182 25.9653 85.7875 27.0747 84.5075 28.056C83.2702 29.0373 81.9688 29.9333 80.6035 30.744C79.2808 31.5547 77.9795 32.3013 76.6995 32.984C75.4195 33.624 74.2675 34.2213 73.2435 34.776C72.2195 35.288 71.4088 35.8 70.8115 36.312H91.1635V47H51.8675ZM128.45 47.512C126.444 47.512 124.652 47.2987 123.074 46.872C121.538 46.4453 120.215 45.848 119.106 45.08C118.039 44.312 117.164 43.4373 116.482 42.456H116.034L115.586 47H102.21V0.343998H116.354V16.6H116.802C117.911 14.9787 119.511 13.7413 121.602 12.888C123.692 11.992 125.975 11.544 128.45 11.544C131.01 11.544 133.314 11.9707 135.362 12.824C137.452 13.6347 139.223 14.8293 140.674 16.408C142.167 17.9867 143.319 19.8853 144.13 22.104C144.94 24.28 145.346 26.7547 145.346 29.528C145.346 33.1973 144.642 36.376 143.234 39.064C141.826 41.752 139.863 43.8427 137.346 45.336C134.828 46.7867 131.863 47.512 128.45 47.512ZM123.97 36.952C125.42 36.952 126.679 36.6747 127.746 36.12C128.855 35.5227 129.708 34.6693 130.306 33.56C130.903 32.4507 131.202 31.1067 131.202 29.528C131.202 28.2907 131.031 27.224 130.69 26.328C130.348 25.3893 129.858 24.6213 129.218 24.024C128.578 23.384 127.81 22.9147 126.914 22.616C126.06 22.2747 125.079 22.104 123.97 22.104C122.391 22.104 121.026 22.4027 119.874 23C118.722 23.5973 117.847 24.4293 117.25 25.496C116.652 26.52 116.354 27.736 116.354 29.144V29.848C116.354 31.2133 116.652 32.4507 117.25 33.56C117.847 34.6267 118.722 35.4587 119.874 36.056C121.026 36.6533 122.391 36.952 123.97 36.952Z" fill="#3A3A3A"/>
</svg>

<svg xmlns="http://www.w3.org/2000/svg" width="146" height="48" fill="none" viewBox="0 0 146 48"><path fill="#3A3A3A" d="M21.976 47.64c-4.395 0-8.213-.704-11.456-2.112-3.2-1.408-5.696-3.435-7.488-6.08-1.75-2.645-2.624-5.845-2.624-9.6 0-3.925.896-7.232 2.688-9.92 1.835-2.73 4.352-4.8 7.552-6.208 3.243-1.45 6.976-2.176 11.2-2.176 4.65 0 8.576.832 11.776 2.496 3.243 1.664 5.653 4.075 7.232 7.232 1.579 3.157 2.197 6.976 1.856 11.456h-28.16c.043 1.152.363 2.155.96 3.008.64.853 1.536 1.515 2.688 1.984 1.152.427 2.539.64 4.16.64 1.75 0 3.285-.256 4.608-.768 1.323-.555 2.176-1.237 2.56-2.048H42.84c-.256 2.39-1.323 4.501-3.2 6.336-1.877 1.835-4.33 3.264-7.36 4.288-3.03.981-6.464 1.472-10.304 1.472Zm-7.808-21.632-.448-.64H29.4l-.576.576c-.085-.981-.384-1.856-.896-2.624s-1.28-1.365-2.304-1.792c-.981-.427-2.261-.64-3.84-.64-1.408 0-2.645.192-3.712.576-1.067.341-1.941.896-2.624 1.664-.64.768-1.067 1.728-1.28 2.88ZM51.868 47v-2.112c0-2.56.447-4.821 1.343-6.784a17.602 17.602 0 0 1 3.584-5.184 30.273 30.273 0 0 1 4.928-4.096 74.685 74.685 0 0 1 5.377-3.392 131.226 131.226 0 0 0 4.928-3.072c1.493-.981 2.688-2.005 3.584-3.072.895-1.067 1.344-2.24 1.344-3.52 0-1.11-.278-1.984-.832-2.624a4.323 4.323 0 0 0-1.92-1.472c-.726-.299-1.408-.448-2.048-.448-1.323 0-2.433.235-3.329.704a5.137 5.137 0 0 0-2.111 2.048c-.47.853-.79 1.877-.96 3.072H52.058c.427-3.84 1.494-6.976 3.2-9.408 1.707-2.475 4.011-4.31 6.913-5.504C65.072.941 68.55.344 72.603.344c3.969 0 7.34.64 10.113 1.92 2.773 1.237 4.885 2.987 6.336 5.248 1.45 2.261 2.175 4.907 2.175 7.936 0 1.877-.298 3.584-.895 5.12a16.349 16.349 0 0 1-2.432 4.16 19.278 19.278 0 0 1-3.393 3.328 35.182 35.182 0 0 1-3.904 2.688 75.218 75.218 0 0 1-3.903 2.24 119.64 119.64 0 0 0-3.457 1.792c-1.023.512-1.834 1.024-2.431 1.536h20.352V47H51.867Zm76.582.512c-2.006 0-3.798-.213-5.376-.64-1.536-.427-2.859-1.024-3.968-1.792-1.067-.768-1.942-1.643-2.624-2.624h-.448L115.586 47H102.21V.344h14.144V16.6h.448c1.109-1.621 2.709-2.859 4.8-3.712 2.09-.896 4.373-1.344 6.848-1.344 2.56 0 4.864.427 6.912 1.28 2.09.81 3.861 2.005 5.312 3.584 1.493 1.579 2.645 3.477 3.456 5.696.81 2.176 1.216 4.65 1.216 7.424 0 3.67-.704 6.848-2.112 9.536-1.408 2.688-3.371 4.779-5.888 6.272-2.518 1.45-5.483 2.176-8.896 2.176Zm-4.48-10.56c1.45 0 2.709-.277 3.776-.832a6.176 6.176 0 0 0 2.56-2.56c.597-1.11.896-2.453.896-4.032 0-1.237-.171-2.304-.512-3.2-.342-.939-.832-1.707-1.472-2.304a5.801 5.801 0 0 0-2.304-1.408c-.854-.341-1.835-.512-2.944-.512-1.579 0-2.944.299-4.096.896-1.152.597-2.027 1.43-2.624 2.496-.598 1.024-.896 2.24-.896 3.648v.704c0 1.365.298 2.603.896 3.712.597 1.067 1.472 1.899 2.624 2.496 1.152.597 2.517.896 4.096.896Z"/></svg>
